brandFactory_export/1.Light/Envio_Envio Gratis_1Light.svg

<?xml version="1.0" encoding="UTF-8"?>
<svg width="24px" height="24px" viewBox="0 0 24 24" version="1.1" xmlns="http://www.w3.org/2000/svg" xmlns:xlink="http://www.w3.org/1999/xlink">
    <title>1.Light/Envio_Envio Gratis_1Light</title>
    <g id="Symbols" stroke="none" stroke-width="1" fill="none" fill-rule="evenodd">
        <g id="1.Light/Envio_Envio-Gratis_1Light" fill="#5CB615" fill-rule="nonzero">
            <path d="M17.3781513,4.0302521 C17.9831933,4.0302521 18.6184874,4.34957983 18.9613445,4.82689076 C19.4823529,5.54957983 22.4941176,9.54957983 22.887395,10.0605042 C23.1596639,10.4134454 23.6134454,11.005042 23.6134454,11.5764706 L23.6134454,15.5092437 C23.6134454,16.3563025 22.8134454,17.1563025 21.9663866,17.1563025 L20.9426867,17.1578931 C20.7320818,18.4313211 19.8469632,19.1226891 18.3966387,19.1226891 C16.9455522,19.1226891 16.0602656,18.4305945 15.8502593,17.1558857 L15.8319328,17.1563025 L15.8319328,17.1563025 L9.14436733,17.1578931 C8.9337625,18.4313211 8.04864387,19.1226891 6.59831933,19.1226891 C5.14799478,19.1226891 4.26287615,18.4313211 4.05227132,17.1578931 L3.61344538,17.1563025 C2.76638655,17.1563025 1.96638655,16.3563025 1.96638655,15.5092437 L1.966,13.8782521 L0.336134453,13.8789916 C0.151260504,13.8789916 -4.04033473e-10,13.7277311 -4.04033473e-10,13.5428571 C-4.04033473e-10,13.3579832 0.151260504,13.2067227 0.336134453,13.2067227 L1.966,13.2062521 L1.966,10.6012521 L0.336134453,10.6016807 C0.151260504,10.6016807 -4.04033473e-10,10.4504202 -4.04033473e-10,10.2655462 C-4.04033473e-10,10.0806723 0.151260504,9.92941176 0.336134453,9.92941176 L1.966,9.9292521 L1.966,7.3242521 L0.336134453,7.32436975 C0.151260504,7.32436975 -4.04033473e-10,7.17310924 -4.04033473e-10,6.98823529 C-4.04033473e-10,6.80336134 0.151260504,6.65210084 0.336134453,6.65210084 L1.966,6.6512521 L1.96638655,5.67731092 C1.96638655,4.8302521 2.76638655,4.0302521 3.61344538,4.0302521 L17.3781513,4.0302521 Z M6.59831933,14.605042 C5.96302521,14.605042 5.4789916,14.7596639 5.16638655,15.0621849 C4.84033613,15.3747899 4.67563025,15.8689076 4.67563025,16.5277311 C4.67563025,17.1865546 4.84033613,17.6806723 5.16638655,17.9932773 C5.48235294,18.2957983 5.96302521,18.4504202 6.59831933,18.4504202 C7.23361345,18.4504202 7.71764706,18.2957983 8.0302521,17.9932773 C8.35630252,17.6806723 8.5210084,17.1865546 8.5210084,16.5277311 C8.5210084,15.8689076 8.35630252,15.3747899 8.0302521,15.0621849 C7.71764706,14.7563025 7.23361345,14.605042 6.59831933,14.605042 Z M18.3966387,14.605042 C17.7613445,14.605042 17.2773109,14.7596639 16.9647059,15.0621849 C16.6386555,15.3747899 16.4739496,15.8689076 16.4739496,16.5277311 C16.4739496,17.1865546 16.6386555,17.6806723 16.9647059,17.9932773 C17.2806723,18.2957983 17.7613445,18.4504202 18.3966387,18.4504202 C19.0319328,18.4504202 19.5159664,18.2957983 19.8285714,17.9932773 C20.1546218,17.6806723 20.3193277,17.1865546 20.3193277,16.5277311 C20.3193277,15.8689076 20.1546218,15.3747899 19.8285714,15.0621849 C19.5159664,14.7563025 19.0319328,14.605042 18.3966387,14.605042 Z M17.3781513,4.70252101 L3.61344538,4.70252101 C3.1394958,4.70252101 2.63865546,5.20336134 2.63865546,5.67731092 L2.63865546,15.5092437 C2.63865546,15.9831933 3.1394958,16.4840336 3.61344538,16.4840336 L4.004,16.4832521 L4.0074391,16.3379341 C4.07532196,14.7842972 4.98875242,13.9327731 6.59831933,13.9327731 C8.25735923,13.9327731 9.17681095,14.837448 9.19305823,16.4831814 L15.802,16.4832521 L15.8057584,16.3379341 C15.8736413,14.7842972 16.7870718,13.9327731 18.3966387,13.9327731 C20.0556786,13.9327731 20.9751303,14.837448 20.9913776,16.4831814 L21.9663866,16.4840336 C22.4403361,16.4840336 22.9411765,15.9831933 22.9411765,15.5092437 L22.9411765,11.5764706 C22.9411765,11.2336134 22.5613445,10.7361345 22.3563025,10.4705882 C21.9630252,9.95630252 18.9378151,5.94285714 18.4168067,5.21680672 C18.2016807,4.91764706 17.7647059,4.70252101 17.3781513,4.70252101 Z" id="Envio_Envio-Gratis_1Light"></path>
        </g>
    </g>
</svg>

<svg width="24" height="24" viewBox="0 0 24 24" xmlns="http://www.w3.org/2000/svg"><path d="M17.378 4.03c.605 0 1.24.32 1.583.797.521.723 3.533 4.723 3.926 5.234.273.352.726.944.726 1.515v3.933c0 .847-.8 1.647-1.647 1.647l-1.023.002c-.21 1.273-1.096 1.965-2.546 1.965-1.451 0-2.337-.692-2.547-1.967h-.018l-6.688.002c-.21 1.273-1.095 1.965-2.546 1.965-1.45 0-2.335-.692-2.546-1.965l-.439-.002c-.847 0-1.647-.8-1.647-1.647v-1.63H.336A.337.337 0 010 13.543c0-.185.151-.336.336-.336h1.63V10.6H.336A.337.337 0 010 10.267c0-.185.151-.337.336-.337h1.63V7.324H.336A.337.337 0 010 6.988c0-.185.151-.336.336-.336h1.63v-.975c0-.847.8-1.647 1.647-1.647h13.765zM6.598 14.605c-.635 0-1.119.155-1.432.457-.326.313-.49.807-.49 1.466 0 .659.164 1.153.49 1.465.316.303.797.457 1.432.457.636 0 1.12-.154 1.432-.457.326-.312.491-.806.491-1.465 0-.66-.165-1.153-.49-1.466-.313-.306-.797-.457-1.433-.457zm11.799 0c-.636 0-1.12.155-1.432.457-.326.313-.491.807-.491 1.466 0 .659.165 1.153.49 1.465.317.303.797.457 1.433.457.635 0 1.119-.154 1.432-.457.326-.312.49-.806.49-1.465 0-.66-.164-1.153-.49-1.466-.313-.306-.797-.457-1.432-.457zm-1.019-9.902H3.613c-.474 0-.974.5-.974.974v9.832c0 .474.5.975.974.975h.391l.003-.146c.068-1.554.982-2.405 2.591-2.405 1.66 0 2.579.904 2.595 2.55h6.609l.004-.145c.068-1.554.981-2.405 2.59-2.405 1.66 0 2.58.904 2.595 2.55l.975.001c.474 0 .975-.5.975-.975v-3.933c0-.342-.38-.84-.585-1.105-.393-.515-3.418-4.528-3.94-5.254-.214-.3-.651-.514-1.038-.514z" fill="#5CB615" fill-rule="nonzero"/></svg>
